src/assets/cord.svg

<svg width="116" height="54" viewBox="0 0 116 54" fill="none" xmlns="http://www.w3.org/2000/svg">
<path d="M29.9911 46.2288L29.9731 46.7285L29.9911 46.2288ZM12.4911 43.7288L12.7684 43.3128V43.3128L12.4911 43.7288ZM83.9911 3.72885L83.6318 3.38114L83.9911 3.72885ZM111.991 43.7288L112.49 43.7619L111.991 43.7288ZM68.9911 39.7289L68.844 40.2068L68.9911 39.7289ZM42.4911 41.2288L42.0948 40.9239L41.6979 41.44L42.2988 41.6903L42.4911 41.2288ZM54.4911 40.7289L54.3753 40.2425L54.4911 40.7289ZM110.491 50.7289L110.845 51.0824L110.491 50.7289ZM83.9911 1.22881L83.6989 0.823039V0.823039L83.9911 1.22881ZM29.9911 46.2288L30.0091 45.7291C29.0888 45.6959 27.9627 45.8301 26.7388 45.9628C25.4979 46.0974 24.1188 46.236 22.6301 46.2315C19.6629 46.2225 16.2662 45.6447 12.7684 43.3128L12.4911 43.7288L12.2137 44.1448C15.9159 46.613 19.5193 47.222 22.6271 47.2315C24.176 47.2362 25.6031 47.0919 26.8466 46.957C28.1071 46.8203 29.1434 46.6986 29.9731 46.7285L29.9911 46.2288ZM12.4911 43.7288L12.7684 43.3128C3.86082 37.3744 1.614 30.1309 4.43001 24.9682L3.99106 24.7288L3.55212 24.4894C0.368129 30.3267 3.12131 38.0832 12.2137 44.1448L12.4911 43.7288ZM3.99106 24.7288L4.43001 24.9682C5.95826 22.1664 7.16386 19.3828 9.29638 17.0675C11.3971 14.7868 14.4125 12.9594 19.5618 12.2238L19.4911 11.7288L19.4204 11.2338C14.0698 11.9982 10.8352 13.9208 8.56084 16.3901C6.31832 18.8248 5.02386 21.7912 3.55212 24.4894L3.99106 24.7288ZM19.4911 11.7288L19.5618 12.2238C24.706 11.4889 29.8682 12.5886 35.2528 13.8408C40.6091 15.0865 46.1808 16.4819 52.0128 16.2283L51.9911 15.7288L51.9694 15.2293C46.3014 15.4757 40.8731 14.1212 35.4793 12.8668C30.114 11.619 24.7761 10.4687 19.4204 11.2338L19.4911 11.7288ZM51.9911 15.7288L52.0128 16.2283C54.8646 16.1043 57.3322 16.2593 59.7201 16.3224C62.0976 16.3852 64.3798 16.3555 66.7829 15.8428C71.6086 14.8134 76.8178 11.8603 84.3504 4.07656L83.9911 3.72885L83.6318 3.38114C76.1644 11.0975 71.1236 13.8943 66.5743 14.8648C64.2899 15.3522 62.1033 15.385 59.7465 15.3227C57.4 15.2608 54.8676 15.1033 51.9694 15.2293L51.9911 15.7288ZM83.9911 3.72885L84.3504 4.07656C84.9991 3.40622 85.9813 3.0859 87.2556 3.11294C88.5304 3.13999 90.0423 3.51585 91.6586 4.17246C94.8894 5.48498 98.4305 7.8753 101.138 10.5824L101.491 10.2288L101.845 9.87525C99.0517 7.08229 95.4003 4.61318 92.0349 3.246C90.3531 2.56276 88.7159 2.1437 87.2768 2.11316C85.8372 2.08261 84.5406 2.44203 83.6318 3.38114L83.9911 3.72885ZM101.491 10.2288L101.138 10.5824C103.855 13.2996 106.748 16.8689 108.811 22.0998C110.874 27.3325 112.118 34.2568 111.492 43.6958L111.991 43.7288L112.49 43.7619C113.124 34.2009 111.867 27.1252 109.741 21.7329C107.614 16.3388 104.627 12.658 101.845 9.87525L101.491 10.2288ZM111.991 43.7288L111.492 43.6958C111.359 45.7035 110.811 47.1564 109.972 48.1861C109.135 49.2132 107.972 49.8649 106.521 50.2045C103.588 50.8912 99.5738 50.2806 95.0903 48.9927C90.6262 47.7104 85.7841 45.7842 81.2284 43.9203C76.6882 42.0627 72.4158 40.2595 69.1381 39.251L68.9911 39.7289L68.844 40.2068C72.0664 41.1983 76.281 42.9765 80.8497 44.8458C85.4028 46.7087 90.2913 48.6547 94.8143 49.9539C99.3179 51.2475 103.547 51.9276 106.749 51.1782C108.366 50.7997 109.742 50.0516 110.747 48.8177C111.751 47.5864 112.347 45.9171 112.49 43.7619L111.991 43.7288ZM68.9911 39.7289L69.1381 39.251C63.8527 37.6247 57.5721 37.4608 52.4171 37.9688C49.8363 38.223 47.5211 38.6473 45.737 39.1491C44.8457 39.3997 44.0764 39.6727 43.4688 39.9586C42.8778 40.2368 42.3788 40.5548 42.0948 40.9239L42.4911 41.2288L42.8874 41.5337C43.0201 41.3611 43.3367 41.126 43.8947 40.8634C44.436 40.6086 45.1491 40.3532 46.0077 40.1117C47.7236 39.6291 49.9792 39.2138 52.5151 38.9639C57.5934 38.4636 63.7295 38.6331 68.844 40.2068L68.9911 39.7289ZM42.4911 41.2288L42.2988 41.6903C43.3189 42.1154 44.2893 42.5193 46.085 42.5413C47.8481 42.5629 50.3966 42.2177 54.6069 41.2153L54.4911 40.7289L54.3753 40.2425C50.1856 41.24 47.7341 41.5615 46.0972 41.5414C44.493 41.5217 43.6633 41.1756 42.6834 40.7673L42.4911 41.2288ZM54.4911 40.7289L54.6069 41.2153C59.7248 39.9967 64.8693 40.9657 69.5792 42.577C71.9321 43.3819 74.1653 44.3431 76.2246 45.2635C78.2745 46.1798 80.1702 47.0642 81.8116 47.6956L81.9911 47.2289L82.1706 46.7622C80.562 46.1435 78.7077 45.278 76.6326 44.3505C74.5668 43.4272 72.3001 42.4509 69.9029 41.6308C65.1129 39.9921 59.7574 38.961 54.3753 40.2425L54.4911 40.7289ZM81.9911 47.2289L81.8116 47.6956C85.0113 48.9262 90.5162 51.5174 96.021 52.9336C98.7813 53.6438 101.583 54.0713 104.139 53.8818C106.702 53.692 109.048 52.8792 110.845 51.0824L110.491 50.7289L110.138 50.3753C108.557 51.9559 106.464 52.7068 104.065 52.8846C101.661 53.0627 98.978 52.6618 96.2702 51.9651C90.8386 50.5677 85.4709 48.0316 82.1706 46.7622L81.9911 47.2289ZM110.491 50.7289L110.845 51.0824C115.268 46.6587 115.866 39.5727 114.987 32.7896C114.104 25.9771 111.71 19.3021 109.944 15.5174L109.491 15.7288L109.038 15.9402C110.772 19.6555 113.128 26.2306 113.995 32.9182C114.866 39.6351 114.214 46.2992 110.138 50.3753L110.491 50.7289ZM109.491 15.7288L109.944 15.5174C109.029 13.5572 107.258 11.4356 105.075 9.42328C102.884 7.4044 100.248 5.46685 97.5652 3.88074C94.8852 2.29638 92.138 1.05048 89.725 0.430907C87.3464 -0.179858 85.1462 -0.219029 83.6989 0.823039L83.9911 1.22881L84.2832 1.63457C85.3455 0.869772 87.1501 0.802166 89.4763 1.39949C91.7683 1.988 94.4262 3.18671 97.0563 4.74156C99.6834 6.29467 102.262 8.19094 104.397 10.1586C106.539 12.1327 108.203 14.1504 109.038 15.9402L109.491 15.7288ZM83.9911 1.22881L83.6989 0.823039C77.4139 5.34826 74.0964 8.01279 70.5852 9.71732C67.1087 11.405 63.4347 12.1495 56.4496 12.7305L56.4911 13.2288L56.5325 13.7271C63.5474 13.1436 67.3735 12.3881 71.0219 10.6169C74.6357 8.86259 78.0682 6.10939 84.2832 1.63457L83.9911 1.22881ZM56.4911 13.2288L56.4496 12.7305C42.5301 13.8883 29.1961 9.25605 26.0733 8.73559L25.9911 9.22879L25.9089 9.72199C28.7862 10.2015 42.452 14.8983 56.5325 13.7271L56.4911 13.2288ZM25.9911 9.22879L26.0733 8.73559C22.9677 8.218 12.2515 8.22522 4.59864 17.919L4.99108 18.2288L5.38352 18.5386C12.7305 9.23235 23.0145 9.23959 25.9089 9.72199L25.9911 9.22879ZM4.99108 18.2288L4.59864 17.919C0.779207 22.7569 -0.269214 27.1307 0.0554312 30.8967C0.378536 34.6449 2.05678 37.7288 3.57502 40.0061L3.99105 39.7288L4.40707 39.4515C2.92532 37.2288 1.3536 34.3127 1.05174 30.8108C0.751412 27.3269 1.70301 23.2006 5.38352 18.5386L4.99108 18.2288ZM3.99105 39.7288L3.57502 40.0061C5.09029 42.2791 6.63316 44.2154 9.02366 45.8306C11.4088 47.4422 14.6021 48.7105 19.3881 49.7181L19.4911 49.2288L19.5941 48.7395C14.8801 47.7471 11.8234 46.5154 9.58351 45.002C7.34898 43.4922 5.8918 41.6786 4.40707 39.4515L3.99105 39.7288ZM19.4911 49.2288L19.3881 49.7181C24.2316 50.7377 30.4074 50.1029 33.6444 49.1458C34.4495 48.9077 35.1237 48.6356 35.5532 48.3346C35.7617 48.1885 35.9779 47.9913 36.0791 47.7289C36.1337 47.5876 36.1538 47.4285 36.1195 47.264C36.0857 47.1023 36.0059 46.9671 35.9098 46.8585C35.7281 46.653 35.4573 46.5076 35.1621 46.3953C34.8559 46.2789 34.4688 46.1782 34.0011 46.0916C33.0649 45.9183 31.7534 45.792 30.0091 45.7291L29.9911 46.2288L29.9731 46.7285C31.6948 46.7906 32.9515 46.9143 33.819 47.0749C34.2532 47.1553 34.5768 47.2426 34.8068 47.3301C35.0478 47.4217 35.1387 47.496 35.1608 47.521C35.1667 47.5276 35.1493 47.5103 35.1406 47.4686C35.1313 47.4241 35.1392 47.387 35.1461 47.369C35.1521 47.3535 35.1319 47.4087 34.9794 47.5156C34.687 47.7205 34.141 47.9561 33.3608 48.1868C30.2569 49.1047 24.2507 49.7199 19.5941 48.7395L19.4911 49.2288Z" fill="black"/>
<path d="M24.4911 46.7289L25.4911 49.7289" stroke="black" stroke-linecap="round"/>
<path d="M54.9619 38.7289C55.2976 39.2103 55.8117 40.1346 55.1829 39.9803" stroke="black" stroke-linecap="round"/>
</svg>

<svg xmlns="http://www.w3.org/2000/svg" width="116" height="54" fill="none"><path fill="#000" d="m29.991 46.229-.018.5zm-17.5-2.5.277-.416zm71.5-40-.36-.348zm28 40 .499.033zm-43-4-.147.478zm-26.5 1.5-.396-.305-.397.516.6.25zm12-.5-.116-.486zm56 10 .354.353zm-26.5-49.5L83.7.823zm-54 45 .018-.5c-.92-.033-2.046.101-3.27.234-1.241.134-2.62.273-4.109.268-2.967-.009-6.364-.586-9.862-2.918l-.277.416-.277.416c3.702 2.468 7.305 3.077 10.413 3.086 1.549.005 2.976-.14 4.22-.274 1.26-.137 2.296-.258 3.126-.229zm-17.5-2.5.277-.416C3.861 37.374 1.614 30.13 4.43 24.968l-.439-.24-.439-.239c-3.184 5.838-.43 13.594 8.662 19.656zm-8.5-19 .439.24c1.528-2.803 2.734-5.586 4.866-7.902 2.101-2.28 5.117-4.108 10.266-4.843l-.07-.495-.072-.495c-5.35.764-8.585 2.687-10.86 5.156-2.242 2.435-3.536 5.401-5.008 8.1zm15.5-13 .07.495c5.145-.735 10.307.365 15.692 1.617 5.356 1.245 10.928 2.64 16.76 2.387l-.022-.5-.022-.499c-5.668.247-11.096-1.108-16.49-2.362-5.365-1.248-10.703-2.398-16.059-1.633zm32.5 4 .022.5c2.852-.125 5.32.03 7.707.093 2.378.063 4.66.034 7.063-.48 4.826-1.029 10.035-3.982 17.567-11.765l-.359-.348-.36-.348c-7.467 7.717-12.507 10.513-17.057 11.484-2.284.487-4.47.52-6.828.458-2.346-.062-4.878-.22-7.777-.094zm32-12 .36.348c.648-.67 1.63-.991 2.905-.964s2.786.403 4.403 1.06c3.23 1.312 6.771 3.702 9.479 6.41l.353-.354.354-.354c-2.793-2.793-6.445-5.262-9.81-6.629-1.682-.683-3.32-1.102-4.758-1.133-1.44-.03-2.736.329-3.645 1.268zm17.5 6.5-.353.353c2.717 2.718 5.61 6.287 7.673 11.518s3.307 12.157 2.681 21.596l.499.033.499.033c.634-9.561-.623-16.637-2.749-22.03s-5.114-9.074-7.896-11.857zm10.5 33.5-.499-.033c-.133 2.008-.681 3.46-1.52 4.49-.837 1.027-2 1.679-3.451 2.019-2.933.686-6.947.076-11.43-1.212-4.465-1.283-9.307-3.209-13.863-5.073-4.54-1.857-8.812-3.66-12.09-4.669l-.147.478-.147.478c3.222.991 7.437 2.77 12.006 4.639 4.553 1.863 9.441 3.809 13.964 5.108 4.504 1.294 8.733 1.974 11.935 1.224 1.617-.378 2.993-1.126 3.998-2.36 1.004-1.232 1.6-2.9 1.743-5.056zm-43-4 .147-.478c-5.285-1.626-11.566-1.79-16.72-1.282-2.582.254-4.897.678-6.681 1.18-.891.25-1.66.524-2.268.81-.591.278-1.09.596-1.374.965l.396.305.396.305c.133-.173.45-.408 1.008-.67.541-.255 1.254-.51 2.113-.752 1.716-.483 3.971-.898 6.507-1.148 5.078-.5 11.215-.33 16.329 1.243zm-26.5 1.5-.192.461c1.02.425 1.99.83 3.786.851 1.763.022 4.312-.323 8.522-1.326l-.116-.486-.116-.486c-4.19.997-6.64 1.319-8.278 1.298-1.604-.02-2.434-.365-3.414-.774zm12-.5.116.486c5.118-1.218 10.262-.25 14.972 1.362 2.353.805 4.586 1.766 6.646 2.687 2.05.916 3.945 1.8 5.587 2.432l.18-.467.179-.467c-1.609-.618-3.463-1.484-5.538-2.412-2.066-.923-4.333-1.9-6.73-2.72-4.79-1.638-10.146-2.669-15.528-1.388zm27.5 6.5-.18.467c3.2 1.23 8.705 3.821 14.21 5.238 2.76.71 5.562 1.137 8.118.948 2.563-.19 4.909-1.003 6.706-2.8l-.354-.353-.353-.354c-1.581 1.58-3.674 2.332-6.073 2.51-2.404.178-5.087-.223-7.795-.92-5.431-1.397-10.8-3.933-14.1-5.203zm28.5 3.5.354.353c4.423-4.423 5.021-11.51 4.142-18.292-.883-6.813-3.277-13.488-5.043-17.273l-.453.212-.453.211c1.734 3.716 4.09 10.29 4.957 16.978.871 6.717.219 13.381-3.857 17.457zm-1-35 .453-.212c-.915-1.96-2.686-4.081-4.869-6.094-2.191-2.019-4.827-3.956-7.51-5.542-2.68-1.585-5.427-2.83-7.84-3.45-2.379-.61-4.579-.65-6.026.392l.292.406.292.406c1.063-.765 2.867-.833 5.193-.236 2.292.589 4.95 1.788 7.58 3.343 2.627 1.553 5.206 3.449 7.341 5.417 2.142 1.974 3.806 3.991 4.641 5.781zm-25.5-14.5L83.7.823c-6.285 4.525-9.603 7.19-13.114 8.894-3.476 1.688-7.15 2.432-14.135 3.013l.041.499.041.498c7.015-.583 10.842-1.339 14.49-3.11 3.614-1.754 7.046-4.508 13.261-8.982zm-27.5 12-.041-.498c-13.92 1.157-27.254-3.475-30.377-3.995l-.082.493-.082.493c2.877.48 16.543 5.176 30.624 4.005zm-30.5-4 .082-.493c-3.105-.518-13.821-.51-21.474 9.183l.392.31.393.31c7.346-9.307 17.63-9.3 20.525-8.817zm-21 9-.392-.31C.779 22.757-.27 27.131.055 30.897c.324 3.748 2.002 6.832 3.52 9.11l.416-.278.416-.277c-1.482-2.223-3.053-5.14-3.355-8.641-.3-3.484.651-7.61 4.332-12.272zm-1 21.5-.416.277c1.515 2.273 3.058 4.21 5.449 5.825 2.385 1.611 5.578 2.88 10.364 3.887l.103-.49.103-.489c-4.714-.992-7.77-2.224-10.01-3.737-2.235-1.51-3.692-3.323-5.177-5.55zm15.5 9.5-.103.49c4.844 1.019 11.02.384 14.256-.573.806-.238 1.48-.51 1.91-.811.208-.147.424-.344.525-.606a.8.8 0 0 0 .04-.465.9.9 0 0 0-.21-.406c-.18-.205-.452-.35-.747-.463a7 7 0 0 0-1.16-.303c-.937-.174-2.249-.3-3.993-.363l-.018.5-.018.5c1.722.062 2.979.185 3.846.346.434.08.758.168.988.255.24.092.332.166.354.191.006.007-.012-.01-.02-.052a.2.2 0 0 1 .005-.1c.006-.016-.014.04-.167.147-.292.205-.838.44-1.618.67-3.104.919-9.11 1.534-13.767.553z"/><path stroke="#000" stroke-linecap="round" d="m24.491 46.729 1 3M54.962 38.729c.336.481.85 1.406.22 1.251"/></svg>
